dist/svg/static/poi-contact-small.svg

<svg xmlns="http://www.w3.org/2000/svg" width="24" height="24" viewBox="0 0 24 24"><g fill="none" stroke="currentColor"><path d="M18.563 8.723c0-3.939-3.105-7.16-6.899-7.16s-6.898 3.222-6.898 7.16 6.898 13.81 6.898 13.81 6.899-9.872 6.899-13.81z"/><path stroke-miterlimit="10" d="M12.5 7.5h-2c-.55 0-1-.45-1-1v-2c0-.55.45-1 1-1h2c.55 0 1 .45 1 1v2c0 .55-.45 1-1 1zM14.5 10.194s.03-.694-.536-.694H9.036c-.566 0-.536.694-.536.694V13.5h6v-3.306z"/></g></svg>

<?xml version="1.0" encoding="UTF-8" standalone="no"?>
<svg width="24px" height="24px" viewBox="0 0 24 24" version="1.1" xmlns="http://www.w3.org/2000/svg" xmlns:xlink="http://www.w3.org/1999/xlink">
    <!-- Generator: sketchtool 46.2 (44496) - http://www.bohemiancoding.com/sketch -->
    <title>poi-contact-small</title>
    <desc>Created with sketchtool.</desc>
    <defs></defs>
    <g id="icons-published" stroke="none" stroke-width="1" fill="none" fill-rule="evenodd">
        <g id="briefing" transform="translate(-1220.000000, -1306.000000)"></g>
        <g id="poi-contact-small" stroke="#000000">
            <path d="M18.6,8.7 C18.6,4.8 15.5,1.5 11.7,1.5 C7.9,1.5 4.8,4.8 4.8,8.7 C4.8,12.6 11.7,22.5 11.7,22.5 C11.7,22.5 18.6,12.7 18.6,8.7 Z" id="Shape"></path>
            <path d="M12.5,7.5 L10.5,7.5 C9.9,7.5 9.5,7.1 9.5,6.5 L9.5,4.5 C9.5,4 9.9,3.5 10.5,3.5 L12.5,3.5 C13.1,3.5 13.5,4 13.5,4.5 L13.5,6.5 C13.5,7.1 13.1,7.5 12.5,7.5 Z M14.5,10.2 C14.5,10.2 14.5,9.5 14,9.5 L9,9.5 C8.4,9.5 8.5,10.2 8.5,10.2 L8.5,13.5 L14.5,13.5 L14.5,10.2 Z" id="Shape"></path>
        </g>
    </g>
</svg>
